dist/assets/img/about/4.svg

<svg width="264" height="110" viewBox="0 0 264 110" fill="none" xmlns="http://www.w3.org/2000/svg">
<path d="M3.37194 3.38747C3.43727 1.51662 5.00686 0.0529616 6.8777 0.118293L259.944 8.95558C261.815 9.02091 263.279 10.5905 263.214 12.4613L259.96 105.625C259.895 107.496 258.325 108.96 256.454 108.895L3.38774 100.057C1.51689 99.992 0.0532466 98.4225 0.118578 96.5516L3.37194 3.38747Z" fill="white"/>
<g filter="url(#filter0_d)">
<mask id="path-3-inside-1" fill="white">
<rect x="31.0659" y="34.7336" width="50.1042" height="32.5" rx="1.625" transform="rotate(2 31.0659 34.7336)"/>
</mask>
<rect x="31.0659" y="34.7336" width="50.1042" height="32.5" rx="1.625" transform="rotate(2 31.0659 34.7336)" fill="white"/>
<rect x="31.0659" y="34.7336" width="50.1042" height="32.5" rx="1.625" transform="rotate(2 31.0659 34.7336)" stroke="#333A4A" stroke-width="4" mask="url(#path-3-inside-1)"/>
</g>
<path d="M78.4004 56.7114L71.977 50.0919C71.4718 49.5679 70.624 49.5383 70.0835 50.0257L59.9894 59.129L55.7295 54.7108C55.2243 54.1868 54.3766 54.1572 53.8361 54.6446L40.8291 65.5618L78.0459 66.8614L78.4004 56.7114Z" fill="#1ABF7E"/>
<ellipse cx="46.2275" cy="46.7804" rx="4.73958" ry="4.73958" transform="rotate(2 46.2275 46.7804)" fill="#FFAA00"/>
<path d="M101.662 58.9621L104.99 59.0783L110.425 50.4427L110.605 50.449L110.372 51.9718L110.117 59.2573L112.816 59.3516L113.255 46.7592L109.927 46.643L104.493 55.2786L104.313 55.2723L104.546 53.7495L104.8 46.464L102.102 46.3698L101.662 58.9621ZM114.288 56.4312C114.393 57.0292 114.608 57.577 114.951 58.0753C115.534 58.9062 116.603 59.754 118.582 59.8231C121.46 59.9236 122.676 58.6153 122.73 57.0862C122.763 56.1508 122.332 55.5774 121.894 55.2199C121.632 55.0126 121.348 54.8766 121.009 54.7747L121.013 54.6848C121.321 54.6235 121.595 54.525 121.834 54.3713C122.257 54.1159 122.67 53.644 122.698 52.8525C122.745 51.5033 121.529 50.2001 118.921 50.109C117.05 50.0437 115.998 50.7634 115.379 51.4802C115.022 51.9 114.753 52.3769 114.59 52.9296L117.108 53.0175C117.151 52.8389 117.246 52.6801 117.377 52.5406C117.603 52.2783 117.97 52.057 118.672 52.0815C119.751 52.1192 120.185 52.5846 120.17 53.0344C120.148 53.664 119.775 54.0112 118.696 53.9735L117.617 53.9358L117.554 55.7347L118.723 55.7756C119.892 55.8164 120.24 56.1887 120.218 56.8184C120.198 57.376 119.733 57.792 118.654 57.7544C117.845 57.7261 117.387 57.4219 117.127 57.1247C116.971 56.9571 116.87 56.7555 116.806 56.5191L114.288 56.4312ZM123.619 55.136C123.525 57.8344 125.59 60.0678 128.487 60.169C131.347 60.2689 133.599 58.1862 133.693 55.4878C133.787 52.7895 131.686 50.5548 128.826 50.4549C125.93 50.3538 123.714 52.4377 123.619 55.136ZM126.228 55.2271C126.284 53.6081 127.401 52.5665 128.75 52.6136C130.1 52.6607 131.141 53.7777 131.085 55.3967C131.028 57.0158 129.911 58.0574 128.562 58.0103C127.213 57.9632 126.171 56.8461 126.228 55.2271ZM134.64 54.8905C134.521 58.2904 136.535 60.45 139.216 60.5436C142.094 60.6442 144.052 58.7313 144.14 56.2129C144.225 53.7663 142.507 51.9232 140.15 51.8409C139.143 51.8058 138.448 52.1057 137.987 52.3958C137.711 52.5843 137.488 52.7746 137.318 53.0028L137.228 52.9997C137.387 51.006 138.672 49.8081 141.208 49.8967L143.547 49.9784L143.622 47.8197L141.014 47.7286C137.056 47.5904 134.816 49.8536 134.64 54.8905ZM137.214 55.971C137.262 54.6038 138.174 53.7532 139.451 53.7978C140.728 53.8424 141.579 54.7546 141.531 56.1218C141.481 57.5609 140.568 58.4296 139.291 58.385C138.014 58.3404 137.164 57.4101 137.214 55.971ZM145.149 63.9027L147.667 63.9907L147.827 59.4035L147.917 59.4066C148.106 59.6834 148.331 59.9254 148.594 60.1507C149.067 60.5274 149.738 60.9111 150.745 60.9463C153.084 61.0279 155.039 59.205 155.142 56.2368C155.246 53.2687 153.423 51.3138 151.084 51.2322C150.077 51.197 149.381 51.5329 148.883 51.8757C148.605 52.0822 148.363 52.3079 148.156 52.5708L148.066 52.5677L148.107 51.3984L145.588 51.3104L145.149 63.9027ZM147.947 55.9856C148.007 54.2586 149.012 53.3211 150.379 53.3689C151.657 53.4135 152.594 54.4188 152.534 56.1458C152.473 57.8727 151.468 58.8102 150.191 58.7656C148.824 58.7178 147.886 57.7125 147.947 55.9856ZM156.061 56.2689C155.957 59.2371 157.78 61.1919 160.119 61.2736C161.126 61.3088 161.822 60.9729 162.32 60.63C162.598 60.4236 162.84 60.1979 163.047 59.935L163.137 59.9381L163.096 61.1074L165.615 61.1954L165.935 52.0209L163.417 51.933L163.376 53.1023L163.286 53.0991C163.097 52.8224 162.872 52.5804 162.609 52.3551C162.136 51.9783 161.465 51.5947 160.458 51.5595C158.119 51.4778 156.165 53.3007 156.061 56.2689ZM158.669 56.36C158.73 54.6331 159.735 53.6956 161.012 53.7402C162.379 53.7879 163.317 54.7933 163.256 56.5202C163.196 58.2472 162.191 59.1846 160.824 59.1369C159.546 59.0923 158.609 58.087 158.669 56.36ZM166.354 61.2212L169.232 61.3217L171.516 57.7992L172.775 57.8432L172.65 61.441L175.168 61.529L175.294 57.9312L176.553 57.9751L178.586 61.6483L181.464 61.7488L178.579 56.6951L181.515 52.565L178.727 52.4676L176.359 55.807L175.369 55.7725L175.489 52.3546L172.97 52.2666L172.851 55.6845L171.861 55.65L169.732 52.1535L166.944 52.0562L169.584 56.381L166.354 61.2212ZM181.474 57.1564C181.38 59.8547 183.445 62.0882 186.251 62.1862C188.23 62.2553 189.428 61.4866 190.175 60.7022C190.606 60.231 190.913 59.7013 191.131 59.1146L188.433 59.0204C188.318 59.2145 188.168 59.3893 187.982 59.545C187.631 59.8029 187.136 60.0557 186.327 60.0275C185.157 59.9866 184.22 58.9633 184.063 57.7871L191.259 58.0384L191.278 57.4987C191.371 54.8184 189.469 52.5726 186.59 52.4721C183.784 52.3741 181.568 54.458 181.474 57.1564ZM184.207 56.2612C184.509 55.3532 185.346 54.5899 186.515 54.6308C187.684 54.6716 188.466 55.5094 188.614 56.4151L184.207 56.2612ZM192.479 62.1335L194.997 62.2214L195.123 58.6236L198.991 58.7587L198.865 62.3565L201.384 62.4444L201.704 53.27L199.186 53.1821L199.066 56.6L195.199 56.4649L195.318 53.047L192.799 52.9591L192.479 62.1335ZM203.21 62.5082L205.909 62.6024L209.791 57.1546L209.971 57.1609L209.824 58.7768L209.686 62.7344L212.205 62.8223L212.525 53.6479L209.827 53.5537L205.944 59.0015L205.764 58.9952L205.911 57.3793L206.049 53.4218L203.531 53.3338L203.21 62.5082ZM213.65 58.28C213.555 60.9783 215.621 63.2118 218.427 63.3098C220.406 63.3789 221.603 62.6102 222.351 61.8258C222.782 61.3546 223.089 60.8249 223.307 60.2382L220.609 60.144C220.494 60.3381 220.344 60.513 220.158 60.6686C219.807 60.9265 219.312 61.1794 218.502 61.1511C217.333 61.1102 216.396 60.0869 216.239 58.9107L223.435 59.162L223.454 58.6223C223.547 55.942 221.645 53.6962 218.766 53.5957C215.96 53.4977 213.744 55.5816 213.65 58.28ZM216.383 57.3848C216.685 56.4768 217.522 55.7135 218.691 55.7544C219.86 55.7952 220.641 56.633 220.79 57.5387L216.383 57.3848Z" fill="#333A4A"/>
<path d="M6.8079 2.11707L259.875 10.9544L260.014 6.95679L6.9475 -1.88049L6.8079 2.11707ZM261.215 12.3915L257.961 105.556L261.959 105.695L265.212 12.5311L261.215 12.3915ZM256.524 106.896L3.45754 98.0586L3.31794 102.056L256.385 110.893L256.524 106.896ZM2.11736 96.6214L5.37072 3.45727L1.37316 3.31767L-1.8802 96.4818L2.11736 96.6214ZM3.45754 98.0586C2.6906 98.0318 2.09058 97.3884 2.11736 96.6214L-1.8802 96.4818C-1.98408 99.4566 0.343185 101.952 3.31794 102.056L3.45754 98.0586ZM257.961 105.556C257.935 106.323 257.291 106.923 256.524 106.896L256.385 110.893C259.359 110.997 261.855 108.67 261.959 105.695L257.961 105.556ZM259.875 10.9544C260.642 10.9811 261.242 11.6246 261.215 12.3915L265.212 12.5311C265.316 9.5564 262.989 7.06068 260.014 6.95679L259.875 10.9544ZM6.9475 -1.88049C3.97276 -1.98437 1.47704 0.342923 1.37316 3.31767L5.37072 3.45727C5.39751 2.69032 6.04095 2.09029 6.8079 2.11707L6.9475 -1.88049Z" fill="#333A4A"/>
<defs>
<filter id="filter0_d" x="29.9873" y="34.7892" width="54.3465" height="37.3674" filterUnits="userSpaceOnUse" color-interpolation-filters="sRGB">
<feFlood flood-opacity="0" result="BackgroundImageFix"/>
<feColorMatrix in="SourceAlpha" type="matrix" values="0 0 0 0 0 0 0 0 0 0 0 0 0 0 0 0 0 0 127 0" result="hardAlpha"/>
<feOffset dx="3.25" dy="3.25"/>
<feColorMatrix type="matrix" values="0 0 0 0 0.2 0 0 0 0 0.227451 0 0 0 0 0.290196 0 0 0 1 0"/>
<feBlend mode="normal" in2="BackgroundImageFix" result="effect1_dropShadow"/>
<feBlend mode="normal" in="SourceGraphic" in2="effect1_dropShadow" result="shape"/>
</filter>
</defs>
</svg>

<svg width="264" height="110" viewBox="0 0 264 110" fill="none" xmlns="http://www.w3.org/2000/svg"><path d="M3.372 3.387A3.39 3.39 0 016.878.118l253.066 8.838a3.39 3.39 0 013.27 3.505l-3.254 93.164a3.39 3.39 0 01-3.506 3.27L3.388 100.057a3.389 3.389 0 01-3.27-3.505L3.373 3.387z" fill="#fff"/><g filter="url(#filter0_d)"><mask id="path-3-inside-1" fill="#fff"><rect x="31.066" y="34.734" width="50.104" height="32.5" rx="1.625" transform="rotate(2 31.066 34.734)"/></mask><rect x="31.066" y="34.734" width="50.104" height="32.5" rx="1.625" transform="rotate(2 31.066 34.734)" fill="#fff"/><rect x="31.066" y="34.734" width="50.104" height="32.5" rx="1.625" transform="rotate(2 31.066 34.734)" stroke="#333A4A" stroke-width="4" mask="url(#path-3-inside-1)"/></g><path d="M78.4 56.711l-6.423-6.62a1.372 1.372 0 00-1.894-.065L59.99 59.129l-4.26-4.418a1.372 1.372 0 00-1.893-.066L40.83 65.562l37.217 1.3.354-10.15z" fill="#1ABF7E"/><circle cx="46.227" cy="46.78" transform="rotate(2 46.227 46.78)" fill="#FA0" r="4.74"/><path d="M101.662 58.962l3.328.116 5.435-8.635.18.006-.233 1.523-.255 7.285 2.699.095.439-12.593-3.328-.116-5.434 8.636-.18-.007.233-1.523.254-7.285-2.698-.094-.44 12.592zm12.626-2.53c.105.597.32 1.145.663 1.643.583.831 1.652 1.679 3.631 1.748 2.878.1 4.094-1.208 4.148-2.737.033-.935-.398-1.509-.836-1.866a2.564 2.564 0 00-.885-.445l.004-.09a2.34 2.34 0 00.821-.314c.423-.255.836-.727.864-1.519.047-1.349-1.169-2.652-3.777-2.743-1.871-.065-2.923.654-3.542 1.371-.357.42-.626.897-.789 1.45l2.518.087a1.06 1.06 0 01.269-.476c.226-.263.593-.484 1.295-.46 1.079.038 1.513.504 1.498.953-.022.63-.395.977-1.474.94l-1.079-.038-.063 1.799 1.169.04c1.169.041 1.517.414 1.495 1.043-.02.558-.485.974-1.564.936-.809-.028-1.267-.332-1.527-.63a1.4 1.4 0 01-.321-.605l-2.518-.088zm9.331-1.296c-.094 2.698 1.971 4.932 4.868 5.033 2.86.1 5.112-1.983 5.206-4.681.094-2.699-2.007-4.933-4.867-5.033-2.896-.101-5.112 1.983-5.207 4.681zm2.609.091c.056-1.619 1.173-2.66 2.522-2.613 1.35.047 2.391 1.164 2.335 2.783-.057 1.619-1.174 2.66-2.523 2.613-1.349-.047-2.391-1.164-2.334-2.783zm8.412-.336c-.119 3.4 1.895 5.559 4.576 5.653 2.878.1 4.836-1.813 4.924-4.331.085-2.447-1.633-4.29-3.99-4.372-1.007-.035-1.702.265-2.163.555-.276.188-.499.379-.669.607l-.09-.003c.159-1.994 1.444-3.192 3.98-3.103l2.339.081.075-2.158-2.608-.091c-3.958-.139-6.198 2.125-6.374 7.162zm2.574 1.08c.048-1.367.96-2.218 2.237-2.173 1.277.044 2.128.957 2.08 2.324-.05 1.439-.963 2.308-2.24 2.263-1.277-.045-2.127-.975-2.077-2.414zm7.935 7.932l2.518.088.16-4.587.09.003c.189.276.414.518.677.744.473.376 1.144.76 2.151.795 2.339.082 4.294-1.741 4.397-4.71.104-2.967-1.719-4.922-4.058-5.004a3.51 3.51 0 00-2.201.644 3.77 3.77 0 00-.727.695l-.09-.003.041-1.17-2.519-.088-.439 12.593zm2.798-7.917c.06-1.727 1.065-2.665 2.432-2.617 1.278.044 2.215 1.05 2.155 2.777-.061 1.727-1.066 2.664-2.343 2.62-1.367-.048-2.305-1.053-2.244-2.78zm8.114.283c-.104 2.968 1.719 4.923 4.058 5.005a3.51 3.51 0 002.201-.644c.278-.206.52-.432.727-.695l.09.003-.041 1.17 2.519.087.32-9.174-2.518-.088-.041 1.17-.09-.004a3.792 3.792 0 00-.677-.744 3.511 3.511 0 00-2.151-.795c-2.339-.082-4.293 1.74-4.397 4.709zm2.608.091c.061-1.727 1.066-2.664 2.343-2.62 1.367.048 2.305 1.053 2.244 2.78-.06 1.727-1.065 2.665-2.432 2.617-1.278-.045-2.215-1.05-2.155-2.777zm7.685 4.861l2.878.1 2.284-3.522 1.259.044-.125 3.598 2.518.088.126-3.598 1.259.044 2.033 3.673 2.878.1-2.885-5.053 2.936-4.13-2.788-.097-2.368 3.339-.99-.035.12-3.417-2.519-.088-.119 3.417-.99-.034-2.129-3.496-2.788-.098 2.64 4.325-3.23 4.84zm15.12-4.065c-.094 2.699 1.971 4.932 4.777 5.03 1.979.07 3.177-.7 3.924-1.484.431-.471.738-1 .956-1.587l-2.698-.095a2.037 2.037 0 01-.451.525c-.351.258-.846.51-1.655.483-1.17-.041-2.107-1.065-2.264-2.24l7.196.25.019-.54c.093-2.68-1.809-4.925-4.688-5.026-2.806-.098-5.022 1.986-5.116 4.684zm2.733-.895c.302-.908 1.139-1.671 2.308-1.63 1.169.04 1.951.878 2.099 1.784l-4.407-.154zm8.272 5.872l2.518.088.126-3.597 3.868.135-.126 3.597 2.519.088.32-9.174-2.518-.088-.12 3.418-3.867-.135.119-3.418-2.519-.088-.32 9.174zm10.731.375l2.699.094 3.882-5.447.18.006-.147 1.616-.138 3.957 2.519.088.32-9.174-2.698-.094L205.944 59l-.18-.006.147-1.616.138-3.957-2.518-.088-.321 9.174zm10.44-4.228c-.095 2.698 1.971 4.932 4.777 5.03 1.979.069 3.176-.7 3.924-1.484a4.772 4.772 0 00.956-1.588l-2.698-.094a2.035 2.035 0 01-.451.525c-.351.258-.846.51-1.656.482-1.169-.04-2.106-1.064-2.263-2.24l7.196.251.019-.54c.093-2.68-1.809-4.926-4.688-5.026-2.806-.098-5.022 1.986-5.116 4.684zm2.733-.895c.302-.908 1.139-1.671 2.308-1.63 1.169.04 1.95.878 2.099 1.784l-4.407-.154zM6.808 2.117l253.067 8.837.139-3.997L6.947-1.88l-.14 3.997zm254.407 10.274l-3.254 93.165 3.998.139 3.253-93.164-3.997-.14zm-4.691 94.505L3.458 98.059l-.14 3.997 253.067 8.837.139-3.997zM2.117 96.621L5.371 3.457l-3.998-.14-3.253 93.165 3.997.14zm1.34 1.438a1.39 1.39 0 01-1.34-1.438l-3.997-.14a5.39 5.39 0 005.198 5.575l.14-3.997zm254.504 7.497a1.389 1.389 0 01-1.437 1.34l-.139 3.997a5.39 5.39 0 005.574-5.198l-3.998-.139zm1.914-94.602a1.39 1.39 0 011.34 1.438l3.997.14a5.39 5.39 0 00-5.198-5.575l-.139 3.997zM6.947-1.88a5.39 5.39 0 00-5.574 5.198l3.998.14a1.39 1.39 0 011.437-1.34l.14-3.998z" fill="#333A4A"/><defs><filter id="filter0_d" x="29.987" y="34.789" width="54.346" height="37.367" filterUnits="userSpaceOnUse" color-interpolation-filters="sRGB"><feFlood flood-opacity="0" result="BackgroundImageFix"/><feColorMatrix in="SourceAlpha" values="0 0 0 0 0 0 0 0 0 0 0 0 0 0 0 0 0 0 127 0" result="hardAlpha"/><feOffset dx="3.25" dy="3.25"/><feColorMatrix values="0 0 0 0 0.2 0 0 0 0 0.227451 0 0 0 0 0.290196 0 0 0 1 0"/><feBlend in2="BackgroundImageFix" result="effect1_dropShadow"/><feBlend in="SourceGraphic" in2="effect1_dropShadow" result="shape"/></filter></defs></svg>
